; generated by PrusaSlicer 2.7.1 on 2024-03-01 at 14:27:23 UTC

; 

; external perimeters extrusion width = 0.42mm
; perimeters extrusion width = 0.44mm
; infill extrusion width = 0.44mm
; solid infill extrusion width = 0.45mm
; top infill extrusion width = 0.40mm
; first layer extrusion width = 0.42mm

;TYPE:Custom
G90 ; use absolute coordinates
M83 ; extruder relative mode
M190 S70 ; set bed temp and wait until stable
G28 ; home all axis
G1 Z20 F240
G1 X2 Y10 F3000
M109 S210 ; set nozzle temp and wait until stable
G1 Z0.3 F240
G92 E0
G1 Y140 E10 F1500 ; prime the nozzle
G1 X2.3 F5000
G92 E0
G1 Y10 E10 F1200 ; prime the nozzle
G92 E0
G21 ; set units to millimeters
G90 ; use absolute coordinates
M83 ; use relative distances for extrusion
; Filament gcode
M107
;LAYER_CHANGE
;Z:0.3
;HEIGHT:0.3
;BEFORE_LAYER_CHANGE
G92 E0
;0.3


G1 E-2 F3600
G1 Z.3 F8400
;AFTER_LAYER_CHANGE
;0.3
G1 X77.373 Y37.868
G1 Z.3
G1 E2 F1800
;TYPE:Perimeter
;WIDTH:0.42
G1 F900
G1 X77.629 Y37.441 E.02208
G1 X77.974 Y36.978 E.02561
G1 X78.362 Y36.55 E.02562
G1 X78.791 Y36.163 E.02563
G1 X79.255 Y35.82 E.02559
G1 X79.751 Y35.523 E.02564
G1 X80.273 Y35.277 E.0256
G1 X80.817 Y35.083 E.02562
G1 X81.378 Y34.944 E.02564
G1 X81.949 Y34.86 E.0256
G1 X82.575 Y34.83 E.0278
G1 X105.305 Y34.857 E1.00818
G1 X105.684 Y35.005 E.01805
G1 X106.179 Y35.134 E.02269
G1 X107.115 Y35.235 E.04176
G1 X112.885 Y35.232 E.25593
G1 X113.295 Y35.188 E.01829
G1 X113.938 Y35.05 E.02917
G1 X114.414 Y34.868 E.0226
G1 X137.177 Y34.896 E1.00965
G1 X137.803 Y34.927 E.0278
G1 X138.374 Y35.013 E.02561
G1 X138.934 Y35.154 E.02561
G1 X139.477 Y35.349 E.02559
G1 X139.999 Y35.597 E.02563
G1 X140.494 Y35.894 E.0256
G1 X140.958 Y36.239 E.02565
G1 X141.385 Y36.627 E.02559
G1 X141.772 Y37.055 E.02559
G1 X142.071 Y37.459 E.02229
G1 X142.372 Y37.948 E.02547
G1 X142.21 Y182.136 E6.39543
G1 X141.951 Y182.567 E.0223
G1 X141.605 Y183.031 E.02567
G1 X141.216 Y183.46 E.02569
G1 X140.787 Y183.848 E.02566
G1 X140.321 Y184.192 E.02569
G1 X139.825 Y184.489 E.02564
G1 X139.301 Y184.736 E.02569
G1 X138.756 Y184.931 E.02567
G1 X138.194 Y185.071 E.02569
G1 X137.621 Y185.155 E.02569
G1 X136.994 Y185.185 E.02784
G1 X82.392 Y185.118 E2.42186
G1 X81.765 Y185.087 E.02784
G1 X81.192 Y185.001 E.0257
G1 X80.631 Y184.86 E.02566
G1 X80.086 Y184.664 E.02569
G1 X79.563 Y184.416 E.02567
G1 X79.067 Y184.118 E.02567
G1 X78.602 Y183.772 E.02571
G1 X78.174 Y183.383 E.02565
G1 X77.786 Y182.953 E.02569
G1 X77.441 Y182.488 E.02568
G1 X77.183 Y182.056 E.02232
G1 X77.372 Y37.928 E6.39277
G1 X77.018 Y37.768 F8400
G1 F900
G1 X77.334 Y37.243 E.02718
G1 X77.699 Y36.752 E.02714
G1 X78.111 Y36.298 E.02719
G1 X78.565 Y35.888 E.02713
G1 X79.058 Y35.523 E.02721
G1 X79.583 Y35.209 E.02713
G1 X80.137 Y34.948 E.02716
G1 X80.714 Y34.742 E.02717
G1 X81.309 Y34.594 E.0272
G1 X81.915 Y34.505 E.02717
G1 X82.566 Y34.474 E.02891
G1 X105.418 Y34.502 E1.0136
G1 X105.818 Y34.675 E.01933
G1 X106.223 Y34.781 E.01857
G1 X107.115 Y34.879 E.0398
G1 X112.885 Y34.876 E.25593
G1 X113.22 Y34.841 E.01494
G1 X113.863 Y34.702 E.02918
G1 X114.344 Y34.513 E.02292
G1 X137.047 Y34.54 E1.00699
G1 X137.572 Y34.56 E.0233
G1 X138.185 Y34.625 E.02734
G1 X138.79 Y34.751 E.02741
G1 X139.278 Y34.9 E.02263
G1 X139.838 Y35.127 E.0268
G1 X140.372 Y35.406 E.02672
G1 X140.873 Y35.733 E.02654
G1 X141.338 Y36.104 E.02639
G1 X141.76 Y36.512 E.02604
G1 X142.136 Y36.949 E.02557
G1 X142.46 Y37.402 E.0247
G1 X142.727 Y37.852 E.02321
G1 X142.563 Y182.239 E6.40426
G1 X142.247 Y182.765 E.02722
G1 X141.88 Y183.257 E.02723
G1 X141.468 Y183.712 E.02723
G1 X141.012 Y184.123 E.02723
G1 X140.519 Y184.488 E.02721
G1 X139.992 Y184.803 E.02723
G1 X139.437 Y185.065 E.02722
G1 X138.859 Y185.271 E.02722
G1 X138.263 Y185.42 E.02725
G1 X137.656 Y185.509 E.02721
G1 X137.002 Y185.54 E.02904
G1 X82.522 Y185.474 E2.41645
G1 X81.996 Y185.455 E.02335
G1 X81.382 Y185.389 E.02739
G1 X80.776 Y185.263 E.02745
G1 X80.286 Y185.114 E.02272
G1 X79.724 Y184.886 E.0269
G1 X79.19 Y184.607 E.02672
G1 X78.687 Y184.278 E.02666
G1 X78.222 Y183.907 E.02639
G1 X77.798 Y183.498 E.02613
G1 X77.422 Y183.06 E.0256
G1 X77.097 Y182.605 E.0248
G1 X76.828 Y182.153 E.02333
G1 X77.018 Y37.828 E6.40151
G1 X76.704 Y37.6 F8400
G1 F900
G1 X77.038 Y37.045 E.02873
G1 X77.424 Y36.525 E.02872
G1 X77.859 Y36.046 E.0287
G1 X78.34 Y35.612 E.02874
G1 X78.86 Y35.227 E.0287
G1 X79.416 Y34.895 E.02872
G1 X80.002 Y34.619 E.02873
G1 X80.611 Y34.401 E.02869
G1 X81.24 Y34.245 E.02874
G1 X81.88 Y34.151 E.02869
G1 X82.558 Y34.118 E.03011
G1 X105.51 Y34.146 E1.01803
G1 X105.952 Y34.346 E.02152
G1 X106.266 Y34.428 E.01439
G1 X107.115 Y34.523 E.03789
G1 X112.884 Y34.521 E.25588
G1 X113.145 Y34.493 E.01164
G1 X113.789 Y34.355 E.02921
G1 X114.248 Y34.157 E.02217
G1 X137.195 Y34.185 E1.01781
G1 X137.873 Y34.219 E.03011
G1 X138.514 Y34.315 E.02875
G1 X139.141 Y34.473 E.02868
G1 X139.751 Y34.692 E.02875
G1 X140.336 Y34.969 E.02871
G1 X140.89 Y35.303 E.02869
G1 X141.41 Y35.689 E.02872
G1 X141.889 Y36.124 E.0287
G1 X142.323 Y36.604 E.0287
G1 X142.709 Y37.125 E.02876
G1 X143.032 Y37.665 E.02791
G1 X143.083 Y37.852 E.0086
G1 X142.921 Y182.229 E6.40381
G1 X142.877 Y182.407 E.00813
G1 X142.542 Y182.963 E.02879
G1 X142.155 Y183.484 E.02879
G1 X141.719 Y183.964 E.02876
G1 X141.238 Y184.399 E.02877
G1 X140.716 Y184.785 E.0288
G1 X140.16 Y185.118 E.02875
G1 X139.573 Y185.394 E.02877
G1 X138.962 Y185.612 E.02877
G1 X138.332 Y185.769 E.0288
G1 X137.69 Y185.864 E.02879
G1 X137.011 Y185.896 E.03015
G1 X82.522 Y185.83 E2.41685
G1 X81.979 Y185.81 E.0241
G1 X81.329 Y185.741 E.02899
G1 X80.689 Y185.608 E.02899
G1 X80.063 Y185.412 E.0291
G1 X79.458 Y185.153 E.02919
G1 X79.007 Y184.911 E.0227
G1 X78.475 Y184.564 E.02817
G1 X77.982 Y184.17 E.02799
G1 X77.534 Y183.736 E.02767
G1 X77.136 Y183.271 E.02715
G1 X76.792 Y182.788 E.0263
G1 X76.472 Y182.233 E.02842
G1 X76.661 Y37.771 E6.40758
G1 X76.69 Y37.658 E.00517
G1 X76.39 Y37.431 F8400
G1 F900
G1 X76.742 Y36.847 E.03024
G1 X77.149 Y36.299 E.03028
G1 X77.608 Y35.794 E.03027
G1 X78.114 Y35.337 E.03024
G1 X78.663 Y34.931 E.03029
G1 X79.249 Y34.581 E.03028
G1 X79.866 Y34.29 E.03026
G1 X80.508 Y34.061 E.03023
G1 X81.171 Y33.896 E.0303
G1 X81.846 Y33.796 E.03027
G1 X82.55 Y33.763 E.03126
G1 X105.602 Y33.791 E1.02247
G1 X105.736 Y33.874 E.00699
G1 X106.31 Y34.075 E.02698
G1 X107.115 Y34.168 E.03594
G1 X112.884 Y34.165 E.25588
G1 X113.071 Y34.145 E.00834
G1 X113.795 Y33.986 E.03288
G1 X114.149 Y33.801 E.01772
G1 X137.048 Y33.829 E1.01568
G1 X137.607 Y33.849 E.02481
G1 X138.29 Y33.922 E.03047
G1 X138.963 Y34.061 E.03048
G1 X139.621 Y34.267 E.03058
G1 X140.257 Y34.538 E.03066
G1 X140.865 Y34.873 E.03079
G1 X141.298 Y35.162 E.02309
G1 X141.816 Y35.577 E.02944
G1 X142.288 Y36.035 E.02917
G1 X142.708 Y36.526 E.02866
G1 X143.07 Y37.037 E.02778
G1 X143.439 Y37.691 E.03331
G1 X143.439 Y37.852 E.00714
G1 X143.276 Y182.394 E6.41113
G1 X143.19 Y182.575 E.00889
G1 X142.838 Y183.161 E.03032
G1 X142.43 Y183.71 E.03034
G1 X141.971 Y184.216 E.0303
G1 X141.464 Y184.674 E.0303
G1 X140.914 Y185.081 E.03035
G1 X140.327 Y185.432 E.03034
G1 X139.709 Y185.723 E.0303
G1 X139.065 Y185.953 E.03033
G1 X138.401 Y186.118 E.03035
G1 X137.725 Y186.218 E.03031
G1 X137.019 Y186.252 E.03135
G1 X82.522 Y186.185 E2.4172
G1 X81.961 Y186.165 E.0249
G1 X81.277 Y186.093 E.03051
G1 X80.602 Y185.953 E.03058
G1 X79.943 Y185.746 E.03064
G1 X79.306 Y185.475 E.0307
G1 X78.696 Y185.14 E.03087
G1 X78.263 Y184.849 E.02314
G1 X77.743 Y184.433 E.02954
G1 X77.271 Y183.975 E.02917
G1 X76.85 Y183.482 E.02876
G1 X76.487 Y182.97 E.02784
G1 X76.116 Y182.312 E.0335
G1 X76.306 Y37.609 E6.41827
G1 X76.365 Y37.486 E.00605
G1 X76.077 Y37.263 F8400
G1 F900
G1 X76.446 Y36.648 E.03181
G1 X76.874 Y36.073 E.03179
G1 X77.357 Y35.542 E.03184
G1 X77.889 Y35.061 E.03181
G1 X78.465 Y34.634 E.0318
G1 X79.081 Y34.266 E.03183
G1 X79.73 Y33.961 E.03181
G1 X80.406 Y33.72 E.03183
G1 X81.102 Y33.546 E.03182
G1 X81.811 Y33.442 E.03178
G1 X82.542 Y33.407 E.03246
G1 X105.685 Y33.435 E1.0265
G1 X105.869 Y33.545 E.00951
G1 X106.354 Y33.722 E.0229
G1 X107.115 Y33.812 E.03399
G1 X112.884 Y33.81 E.25588
G1 X113.639 Y33.659 E.03415
G1 X114.05 Y33.445 E.02055
G1 X137.048 Y33.473 E1.02007
G1 X137.625 Y33.494 E.02561
G1 X138.343 Y33.57 E.03202
G1 X139.05 Y33.716 E.03202
G1 X139.741 Y33.932 E.03211
G1 X140.409 Y34.217 E.03221
G1 X141.049 Y34.568 E.03238
G1 X141.653 Y34.983 E.0325
G1 X142.055 Y35.314 E.0231
G1 X142.552 Y35.796 E.03071
G1 X142.994 Y36.314 E.0302
G1 X143.375 Y36.854 E.02931
G1 X143.795 Y37.612 E.03844
G1 X143.794 Y37.853 E.01069
G1 X143.632 Y182.474 E6.41463
G1 X143.504 Y182.743 E.01321
G1 X143.134 Y183.359 E.03187
G1 X142.705 Y183.936 E.03189
G1 X142.222 Y184.468 E.03187
G1 X141.689 Y184.95 E.03187
G1 X141.111 Y185.377 E.03187
G1 X140.494 Y185.746 E.03189
G1 X139.844 Y186.053 E.03188
G1 X139.167 Y186.294 E.03187
G1 X138.47 Y186.468 E.03186
G1 X137.759 Y186.572 E.03187
G1 X137.027 Y186.607 E.0325
G1 X82.521 Y186.541 E2.4176
G1 X81.943 Y186.52 E.02565
G1 X81.224 Y186.444 E.03207
G1 X80.515 Y186.298 E.03211
G1 X79.823 Y186.081 E.03217
G1 X79.153 Y185.796 E.03229
G1 X78.513 Y185.444 E.0324
G1 X77.907 Y185.028 E.0326
G1 X77.504 Y184.696 E.02316
G1 X77.007 Y184.213 E.03074
G1 X76.564 Y183.694 E.03027
G1 X76.181 Y183.153 E.0294
G1 X75.761 Y182.391 E.03859
G1 X75.951 Y37.529 E6.42533
G1 X76.051 Y37.317 E.0104
G1 X75.763 Y37.095 F8400
;TYPE:External perimeter
G1 F900
G1 X76.15 Y36.45 E.03336
G1 X76.599 Y35.847 E.03335
G1 X77.105 Y35.29 E.03338
G1 X77.663 Y34.785 E.03338
G1 X78.268 Y34.338 E.03336
G1 X78.914 Y33.952 E.03338
G1 X79.594 Y33.631 E.03335
G1 X80.303 Y33.379 E.03337
G1 X81.032 Y33.197 E.03333
G1 X81.777 Y33.088 E.0334
G1 X82.533 Y33.051 E.03357
G1 X105.838 Y33.08 E1.03369
G1 X105.95 Y33.182 E.00672
G1 X106.398 Y33.369 E.02153
G1 X107.115 Y33.457 E.03204
G1 X112.884 Y33.454 E.25588
G1 X113.565 Y33.312 E.03086
G1 X113.934 Y33.09 E.0191
G1 X137.048 Y33.118 E1.02522
G1 X137.643 Y33.139 E.02641
G1 X138.395 Y33.218 E.03354
G1 X139.137 Y33.371 E.0336
G1 X139.861 Y33.598 E.03365
G1 X140.562 Y33.895 E.03377
G1 X141.232 Y34.263 E.03391
G1 X141.866 Y34.698 E.0341
G1 X142.458 Y35.199 E.0344
G1 X142.815 Y35.558 E.02246
G1 X143.279 Y36.103 E.03175
G1 X143.681 Y36.672 E.0309
G1 X144.15 Y37.532 E.04345
G1 X144.15 Y37.853 E.01424
G1 X143.987 Y182.554 E6.41818
G1 X143.818 Y182.911 E.01752
G1 X143.43 Y183.557 E.03342
G1 X142.98 Y184.162 E.03344
G1 X142.474 Y184.72 E.03341
G1 X141.915 Y185.225 E.03341
G1 X141.309 Y185.674 E.03345
G1 X140.662 Y186.06 E.03342
G1 X139.98 Y186.382 E.03345
G1 X139.27 Y186.635 E.03343
G1 X138.539 Y186.817 E.03341
G1 X137.794 Y186.927 E.0334
G1 X137.036 Y186.963 E.03366
G1 X82.521 Y186.897 E2.418
G1 X81.925 Y186.875 E.02645
G1 X81.171 Y186.796 E.03363
G1 X80.428 Y186.642 E.03366
G1 X79.703 Y186.416 E.03368
G1 X79.001 Y186.117 E.03384
G1 X78.33 Y185.749 E.03394
G1 X77.695 Y185.313 E.03417
G1 X77.102 Y184.811 E.03446
G1 X76.743 Y184.451 E.02255
G1 X76.278 Y183.905 E.03181
G1 X75.876 Y183.335 E.03094
G1 X75.405 Y182.471 E.04365
G1 X75.595 Y37.449 E6.43242
G1 X75.737 Y37.149 E.01472
;WIPE_START
G1 F6720
G1 X75.763 Y37.095 E-.0305
G1 X76.15 Y36.45 E-.38281
G1 X76.599 Y35.847 E-.38261
G1 X77.105 Y35.29 E-.38298
G1 X77.663 Y34.785 E-.38301
G1 X78.268 Y34.338 E-.38283
G1 X78.361 Y34.282 E-.05526
;WIPE_END
G1 X78.527 Y34.56 F8400
G1 X142.123 Y37.753
G1 E2 F1800
;TYPE:Solid infill
;WIDTH:0.420815
G1 F900
G1 X141.187 Y36.817 E.05885
G1 X140.783 Y36.45 E.02426
G1 X140.342 Y36.122 E.02443
G1 X139.87 Y35.838 E.02449
G1 X139.555 Y35.689 E.01549
G1 X142.098 Y38.232 E.15988
G1 X142.097 Y38.735 E.02236
G1 X138.752 Y35.391 E.21027
G1 X138.32 Y35.282 E.01981
G1 X138.108 Y35.25 E.00953
G1 X142.096 Y39.239 E.25076
G1 X142.096 Y39.742 E.02236
G1 X137.542 Y35.189 E.28628
G1 X137.019 Y35.17 E.02327
G1 X142.095 Y40.246 E.31913
G1 X142.095 Y40.749 E.02236
G1 X136.515 Y35.169 E.35082
G1 X136.01 Y35.168 E.02245
G1 X142.094 Y41.253 E.38254
G1 X142.094 Y41.756 E.02236
G1 X135.505 Y35.168 E.41422
G1 X135.001 Y35.167 E.02241
G1 X142.093 Y42.26 E.44591
G1 X142.093 Y42.763 E.02236
G1 X134.496 Y35.167 E.4776
G1 X133.991 Y35.166 E.02245
G1 X142.092 Y43.267 E.50932
G1 X142.091 Y43.77 E.02236
G1 X133.486 Y35.165 E.541
G1 X132.982 Y35.165 E.02241
G1 X142.091 Y44.274 E.57269
G1 X142.09 Y44.777 E.02236
G1 X132.477 Y35.164 E.60438
G1 X131.972 Y35.163 E.02245
G1 X142.09 Y45.281 E.63613
G1 X142.089 Y45.784 E.02236
G1 X131.468 Y35.163 E.66775
G1 X130.963 Y35.162 E.02245
G1 X142.089 Y46.288 E.6995
G1 X142.088 Y46.791 E.02236
G1 X130.458 Y35.162 E.73116
G1 X129.954 Y35.161 E.02241
G1 X142.087 Y47.295 E.76284
G1 X142.087 Y47.798 E.02236
G1 X129.449 Y35.16 E.79456
G1 X128.944 Y35.16 E.02245
G1 X142.086 Y48.302 E.82625
G1 X142.086 Y48.805 E.02236
G1 X128.44 Y35.159 E.85794
G1 X127.935 Y35.159 E.02245
G1 X142.085 Y49.309 E.88962
G1 X142.085 Y49.812 E.02236
G1 X127.43 Y35.158 E.92134
G1 X126.926 Y35.157 E.02241
G1 X142.084 Y50.316 E.95303
G1 X142.083 Y50.819 E.02236
G1 X126.421 Y35.157 E.98468
G1 X125.916 Y35.156 E.02245
G1 X142.083 Y51.323 E1.01643
G1 X142.082 Y51.826 E.02236
G1 X125.411 Y35.155 E1.04812
G1 X124.907 Y35.155 E.02241
G1 X142.082 Y52.33 E1.07981
G1 X142.081 Y52.833 E.02236
G1 X124.402 Y35.154 E1.11149
G1 X123.897 Y35.154 E.02245
G1 X142.081 Y53.337 E1.14321
G1 X142.08 Y53.84 E.02236
G1 X123.393 Y35.153 E1.17487
G1 X122.888 Y35.152 E.02245
G1 X142.08 Y54.344 E1.20662
G1 X142.079 Y54.847 E.02236
G1 X122.383 Y35.152 E1.23827
G1 X121.879 Y35.151 E.02241
G1 X142.078 Y55.351 E1.26996
G1 X142.078 Y55.854 E.02236
G1 X121.374 Y35.151 E1.30165
G1 X120.869 Y35.15 E.02245
G1 X142.077 Y56.358 E1.33337
G1 X142.077 Y56.861 E.02236
G1 X120.365 Y35.149 E1.36505
G1 X119.86 Y35.149 E.02245
G1 X142.076 Y57.365 E1.39674
G1 X142.076 Y57.868 E.02236
G1 X119.355 Y35.148 E1.42846
G1 X118.851 Y35.148 E.02241
G1 X142.075 Y58.372 E1.46011
G1 X142.074 Y58.876 E.02241
G1 X118.346 Y35.147 E1.49183
G1 X117.841 Y35.146 E.02245
G1 X142.074 Y59.379 E1.52355
G1 X142.073 Y59.883 E.02241
G1 X117.336 Y35.146 E1.55524
G1 X116.832 Y35.145 E.02241
G1 X142.073 Y60.386 E1.58692
G1 X142.072 Y60.89 E.02241
G1 X116.327 Y35.144 E1.61864
G1 X115.822 Y35.144 E.02245
G1 X142.072 Y61.393 E1.65033
G1 X142.071 Y61.897 E.02241
G1 X115.318 Y35.143 E1.68202
G1 X114.813 Y35.143 E.02245
G1 X142.07 Y62.4 E1.71367
G1 X142.07 Y62.904 E.02241
G1 X114.359 Y35.192 E1.74225
G1 X114.201 Y35.264 E.00772
G1 X113.983 Y35.321 E.01002
G1 X142.069 Y63.407 E1.76579
G1 X142.069 Y63.911 E.02241
G1 X113.567 Y35.409 E1.79195
G1 X113.142 Y35.488 E.01922
G1 X142.068 Y64.414 E1.8186
G1 X142.068 Y64.918 E.02241
G1 X112.653 Y35.503 E1.84935
G1 X112.15 Y35.504 E.02236
G1 X142.067 Y65.421 E1.88091
G1 X142.067 Y65.925 E.02241
G1 X111.646 Y35.504 E1.91259
G1 X111.143 Y35.505 E.02236
G1 X142.066 Y66.428 E1.94416
G1 X142.065 Y66.932 E.02241
G1 X110.639 Y35.505 E1.97581
G1 X110.135 Y35.506 E.02241
G1 X142.065 Y67.435 E2.00744
G1 X142.064 Y67.939 E.02241
G1 X109.632 Y35.506 E2.03906
G1 X109.128 Y35.507 E.02241
G1 X142.064 Y68.442 E2.07068
G1 X142.063 Y68.946 E.02241
G1 X108.625 Y35.507 E2.10231
G1 X108.121 Y35.508 E.02241
G1 X142.063 Y69.449 E2.13393
G1 X142.062 Y69.953 E.02241
G1 X107.617 Y35.508 E2.16559
G1 X107.114 Y35.508 E.02236
G1 X142.061 Y70.456 E2.19718
G1 X142.061 Y70.96 E.02241
G1 X106.556 Y35.455 E2.23223
G1 X105.971 Y35.374 E.02626
G1 X142.06 Y71.463 E2.26895
G1 X142.06 Y71.967 E.02241
G1 X105.224 Y35.131 E2.31591
G1 X104.719 Y35.13 E.02245
G1 X142.059 Y72.47 E2.3476
G1 X142.059 Y72.974 E.02241
G1 X104.215 Y35.13 E2.37928
G1 X103.71 Y35.129 E.02245
G1 X142.058 Y73.477 E2.41097
G1 X142.057 Y73.981 E.02241
G1 X103.205 Y35.128 E2.44269
G1 X102.7 Y35.128 E.02245
G1 X142.057 Y74.484 E2.47438
G1 X142.056 Y74.988 E.02241
G1 X102.196 Y35.127 E2.50606
G1 X101.691 Y35.127 E.02245
G1 X142.056 Y75.491 E2.53775
G1 X142.055 Y75.995 E.02241
G1 X101.186 Y35.126 E2.56947
G1 X100.682 Y35.125 E.02241
G1 X142.055 Y76.498 E2.60116
G1 X142.054 Y77.002 E.02241
G1 X100.177 Y35.125 E2.63284
G1 X99.672 Y35.124 E.02245
G1 X142.054 Y77.505 E2.66456
G1 X142.053 Y78.009 E.02241
G1 X99.168 Y35.124 E2.69622
