; generated by PrusaSlicer 2.7.1 on 2024-03-02 at 19:05:50 UTC

; 

; external perimeters extrusion width = 0.64mm
; perimeters extrusion width = 0.67mm
; infill extrusion width = 0.66mm
; solid infill extrusion width = 0.68mm
; top infill extrusion width = 0.64mm
; support material extrusion width = 0.66mm
; first layer extrusion width = 0.68mm

;TYPE:Custom
G90 ; use absolute coordinates
M83 ; extruder relative mode
M190 S70 ; set bed temp and wait until stable
G28 ; home all axis
G1 Z20 F240
G1 X2 Y10 F3000
M109 S220 ; set nozzle temp and wait until stable
G1 Z0.3 F240
G92 E0
G1 Y140 E10 F1500 ; prime the nozzle
G1 X2.3 F5000
G92 E0
G1 Y10 E10 F1200 ; prime the nozzle
G92 E0
G21 ; set units to millimeters
G90 ; use absolute coordinates
M83 ; use relative distances for extrusion
; Filament gcode
M107
;LAYER_CHANGE
;Z:0.3
;HEIGHT:0.3
;BEFORE_LAYER_CHANGE
G92 E0
;0.3


G1 E-2 F3600
G1 Z.3 F12000
;AFTER_LAYER_CHANGE
;0.3
G1 X117.266 Y107.933
G1 Z.3
G1 E2.2 F1800
;TYPE:External perimeter
;WIDTH:0.68
G1 F900
G1 X117.19 Y108.037 E.0089
G1 X117.132 Y108.258 E.01579
G1 X117.156 Y108.344 E.00617
G1 X117.388 Y108.684 E.02844
G1 X117.61 Y109.062 E.03029
G1 X117.777 Y109.557 E.0361
G1 X117.798 Y110.219 E.04577
G1 X117.721 Y110.636 E.0293
G1 X117.526 Y111.12 E.03606
G1 X117.251 Y111.51 E.03298
G1 X117.132 Y111.742 E.01802
G1 X117.172 Y111.843 E.00751
;WIDTH:0.652268
G1 X117.211 Y111.945 E.00721
;WIDTH:0.624536
G1 X117.292 Y112.043 E.00799
;WIDTH:0.65663
G1 X117.469 Y112.176 E.01472
;WIDTH:0.68
G1 X117.629 Y112.168 E.01107
G1 X118.109 Y111.971 E.03586
G1 X118.631 Y111.832 E.03733
G1 X119.206 Y111.745 E.04019
G1 X119.806 Y111.715 E.04151
G1 X120.406 Y111.745 E.04151
G1 X120.915 Y111.822 E.03557
G1 X121.436 Y111.953 E.03712
G1 X121.881 Y112.127 E.03302
G1 X122.233 Y112.327 E.02798
G1 X122.543 Y112.594 E.02827
G1 X122.69 Y112.899 E.0234
G1 X122.69 Y113.101 E.01396
G1 X122.588 Y113.331 E.01739
G1 X122.361 Y113.575 E.02303
G1 X122.014 Y113.806 E.02881
G1 X121.503 Y114.029 E.03853
G1 X120.98 Y114.168 E.0374
G1 X120.406 Y114.255 E.04012
G1 X119.806 Y114.285 E.04151
G1 X119.206 Y114.255 E.04151
G1 X118.697 Y114.178 E.03557
G1 X118.176 Y114.047 E.03712
G1 X117.661 Y113.845 E.03823
G1 X117.203 Y113.531 E.03837
G1 X116.989 Y113.274 E.02311
G1 X116.902 Y113 E.01987
G1 X116.999 Y112.594 E.02885
;WIDTH:0.65663
G1 X116.799 Y112.311 E.02304
;WIDTH:0.652133
G1 X116.703 Y112.26 E.00717
;WIDTH:0.68
G1 X116.607 Y112.208 E.00754
G1 X116.456 Y112.248 E.01079
G1 X115.958 Y112.531 E.03958
G1 X115.488 Y112.728 E.03522
G1 X114.965 Y112.882 E.03768
G1 X114.393 Y112.987 E.04019
G1 X113.764 Y113.033 E.04358
G1 X112.511 Y113.058 E.08661
G1 X112.34 Y113.114 E.01243
G1 X112.224 Y113.271 E.01349
G1 X112.185 Y113.549 E.0194
G1 X112.3 Y113.729 E.01476
G1 X112.826 Y114.129 E.04567
G1 X113.139 Y114.543 E.03587
G1 X113.25 Y114.856 E.02295
G1 X113.25 Y115.144 E.0199
G1 X113.139 Y115.457 E.02295
G1 X112.896 Y115.789 E.02843
G1 X112.443 Y116.183 E.04149
G1 X111.949 Y116.479 E.0398
G1 X111.349 Y116.753 E.04558
G1 X110.775 Y116.954 E.04203
G1 X109.883 Y117.202 E.06398
G1 X109.048 Y117.367 E.05882
G1 X108.162 Y117.487 E.06179
G1 X107.242 Y117.56 E.06378
G1 X106.306 Y117.585 E.06471
G1 X105.494 Y117.564 E.05613
G1 X104.448 Y117.487 E.07248
G1 X103.563 Y117.367 E.06172
G1 X102.726 Y117.202 E.05895
G1 X101.954 Y116.995 E.05523
G1 X101.262 Y116.753 E.05066
G1 X100.765 Y116.526 E.03776
G1 X100.265 Y116.238 E.03987
G1 X99.877 Y115.947 E.03352
G1 X99.609 Y115.664 E.02693
G1 X99.383 Y115.276 E.03103
G1 X99.338 Y115 E.01932
G1 X99.383 Y114.724 E.01932
G1 X99.528 Y114.431 E.02259
G1 X99.877 Y114.053 E.03555
G1 X100.365 Y113.643 E.04405
G1 X100.422 Y113.433 E.01504
G1 X100.353 Y113.266 E.01249
G1 X100.187 Y113.163 E.0135
G1 X99.501 Y113.001 E.04871
G1 X98.876 Y112.789 E.04561
G1 X98.423 Y112.574 E.03465
G1 X97.835 Y112.185 E.04872
G1 X97.38 Y111.745 E.04374
G1 X97.029 Y111.269 E.04087
G1 X96.806 Y110.77 E.03777
G1 X96.693 Y110.258 E.03623
G1 X96.693 Y109.742 E.03566
G1 X96.805 Y109.233 E.03602
G1 X97.083 Y108.645 E.04495
G1 X97.379 Y108.256 E.03378
G1 X97.834 Y107.816 E.04374
G1 X98.579 Y107.342 E.06102
G1 X99.11 Y107.112 E.03999
G1 X99.631 Y106.958 E.03754
G1 X100.275 Y106.795 E.04591
G1 X100.393 Y106.661 E.01234
G1 X100.413 Y106.468 E.01341
G1 X100.306 Y106.295 E.01406
G1 X99.789 Y105.875 E.04603
G1 X99.473 Y105.457 E.03621
G1 X99.361 Y105.144 E.02297
G1 X99.361 Y104.856 E.0199
G1 X99.473 Y104.543 E.02297
G1 X99.715 Y104.211 E.02839
G1 X100.168 Y103.817 E.04149
G1 X100.663 Y103.521 E.03986
G1 X101.262 Y103.247 E.04552
G1 X101.954 Y103.005 E.05066
G1 X102.726 Y102.798 E.05523
G1 X103.563 Y102.633 E.05895
G1 X104.449 Y102.513 E.06179
G1 X105.368 Y102.44 E.06371
G1 X106.463 Y102.419 E.07568
G1 X107.242 Y102.44 E.05385
G1 X108.162 Y102.513 E.06378
G1 X109.048 Y102.633 E.06179
G1 X109.885 Y102.798 E.05895
G1 X110.657 Y103.005 E.05523
G1 X111.349 Y103.247 E.05066
G1 X111.863 Y103.482 E.03906
G1 X112.328 Y103.748 E.03702
G1 X112.735 Y104.053 E.03515
G1 X113.002 Y104.336 E.02689
G1 X113.228 Y104.724 E.03103
G1 X113.274 Y105 E.01934
G1 X113.228 Y105.276 E.01934
G1 X113.083 Y105.569 E.02259
G1 X112.735 Y105.947 E.03551
G1 X112.282 Y106.286 E.0391
G1 X112.185 Y106.45 E.01317
G1 X112.22 Y106.714 E.0184
G1 X112.34 Y106.886 E.01449
G1 X112.511 Y106.942 E.01243
G1 X113.764 Y106.967 E.08661
G1 X114.393 Y107.013 E.04358
G1 X114.965 Y107.118 E.04019
G1 X115.488 Y107.272 E.03768
G1 X115.958 Y107.469 E.03522
G1 X116.405 Y107.723 E.03553
G1 X116.607 Y107.792 E.01475
G1 X116.818 Y107.71 E.01564
G1 X116.91 Y107.624 E.0087
G1 X117.011 Y107.406 E.0166
G1 X116.902 Y107 E.02905
G1 X116.988 Y106.728 E.01971
G1 X117.203 Y106.469 E.02326
G1 X117.597 Y106.194 E.0332
G1 X118.109 Y105.971 E.03859
G1 X118.631 Y105.832 E.03733
G1 X119.206 Y105.745 E.04019
G1 X119.806 Y105.715 E.04151
G1 X120.406 Y105.745 E.04151
G1 X120.915 Y105.822 E.03557
G1 X121.436 Y105.953 E.03712
G1 X121.881 Y106.127 E.03302
G1 X122.233 Y106.327 E.02798
G1 X122.543 Y106.594 E.02827
G1 X122.69 Y106.899 E.0234
G1 X122.69 Y107.101 E.01396
G1 X122.588 Y107.331 E.01739
G1 X122.361 Y107.576 E.02308
G1 X122.014 Y107.806 E.02877
G1 X121.503 Y108.029 E.03853
G1 X120.98 Y108.168 E.0374
G1 X120.406 Y108.255 E.04012
G1 X119.806 Y108.285 E.04151
G1 X119.206 Y108.255 E.04151
G1 X118.697 Y108.178 E.03557
G1 X118.176 Y108.047 E.03712
G1 X117.73 Y107.873 E.03308
G1 X117.467 Y107.812 E.01866
G1 X117.343 Y107.887 E.01001
;WIPE_START
G1 F9600
G1 X117.266 Y107.933 E-.03195
G1 X117.19 Y108.037 E-.04589
G1 X117.132 Y108.258 E-.0814
G1 X117.156 Y108.344 E-.03181
G1 X117.388 Y108.684 E-.14664
G1 X117.61 Y109.062 E-.15617
G1 X117.777 Y109.557 E-.18611
G1 X117.798 Y110.219 E-.23596
G1 X117.721 Y110.636 E-.15107
G1 X117.526 Y111.12 E-.18589
G1 X117.251 Y111.51 E-.17
G1 X117.132 Y111.742 E-.09289
G1 X117.172 Y111.843 E-.0387
;WIPE_END
G1 E-.44552 F3600
G1 X117.594 Y112.79 F12000
G1 E2.2 F1800
;TYPE:Perimeter
G1 F900
G1 X117.755 Y112.774 E.01118
G1 X118.278 Y112.567 E.03887
G1 X118.757 Y112.435 E.03434
G1 X119.267 Y112.358 E.03564
G1 X119.806 Y112.331 E.03729
G1 X120.312 Y112.356 E.03501
G1 X120.823 Y112.43 E.03568
G1 X121.277 Y112.548 E.03242
G1 X121.648 Y112.696 E.0276
G1 X121.912 Y112.853 E.02123
G1 X122.069 Y113 E.01486
G1 X121.694 Y113.28 E.03234
G1 X121.334 Y113.433 E.02703
G1 X120.854 Y113.565 E.0344
G1 X120.345 Y113.642 E.03557
G1 X119.806 Y113.669 E.03729
G1 X119.3 Y113.644 E.03501
G1 X118.789 Y113.57 E.03568
G1 X118.335 Y113.452 E.03242
G1 X117.94 Y113.294 E.0294
G1 X117.555 Y113.017 E.03278
G1 X117.579 Y112.878 E.00975
G1 E-2 F3600
G1 X117.579 Y112.878 F12000
G1 X117.406 Y113.156
G1 X117.033 Y111.765
G1 X116.635 Y107.896
G1 X116.539 Y108.398
G1 E2.2 F1800
G1 F900
G1 X116.592 Y108.592 E.0139
G1 X116.886 Y109.039 E.03697
G1 X117.098 Y109.421 E.03019
G1 X117.181 Y109.816 E.02789
G1 X117.169 Y110.328 E.03539
G1 X116.991 Y110.812 E.03564
G1 X116.647 Y111.302 E.04137
G1 X116.539 Y111.602 E.02203
G1 X116.339 Y111.632 E.01398
G1 X115.395 Y112.099 E.07278
G1 X114.822 Y112.283 E.04159
G1 X114.315 Y112.375 E.03561
G1 X113.735 Y112.417 E.04019
G1 X112.499 Y112.442 E.08543
G1 X112.119 Y112.532 E.02699
G1 X111.887 Y112.691 E.01944
G1 X111.67 Y112.999 E.02604
G1 X111.567 Y113.388 E.02781
G1 X111.583 Y113.679 E.02014
G1 X111.738 Y114.026 E.02626
G1 X111.927 Y114.219 E.01867
G1 X112.4 Y114.578 E.04104
G1 X112.618 Y114.878 E.02563
G1 X112.643 Y115.044 E.0116
G1 X112.533 Y115.265 E.01706
G1 X112.134 Y115.641 E.03789
G1 X111.662 Y115.933 E.03835
G1 X111.119 Y116.181 E.04125
G1 X110.59 Y116.367 E.03875
G1 X109.741 Y116.603 E.06089
G1 X108.947 Y116.759 E.05592
G1 X108.096 Y116.875 E.05935
G1 X107.21 Y116.945 E.06142
G1 X106.306 Y116.969 E.06249
G1 X105.524 Y116.949 E.05406
G1 X104.512 Y116.874 E.07013
G1 X103.664 Y116.759 E.05914
G1 X102.866 Y116.602 E.0562
G1 X102.136 Y116.407 E.05222
G1 X101.554 Y116.202 E.04264
G1 X101.046 Y115.978 E.03837
G1 X100.572 Y115.705 E.0378
G1 X100.265 Y115.469 E.02676
G1 X100.046 Y115.227 E.02255
G1 X99.962 Y115 E.01673
G1 X100.024 Y114.817 E.01335
G1 X100.265 Y114.531 E.02585
G1 X100.764 Y114.121 E.04463
G1 X100.961 Y113.834 E.02406
G1 X101.038 Y113.506 E.02328
G1 X101.012 Y113.239 E.01854
G1 X100.866 Y112.925 E.02393
G1 X100.604 Y112.679 E.02484
G1 X100.328 Y112.564 E.02066
G1 X99.469 Y112.361 E.061
G1 X98.855 Y112.102 E.04605
G1 X98.39 Y111.814 E.0378
G1 X97.967 Y111.456 E.0383
G1 X97.564 Y110.957 E.04432
G1 X97.393 Y110.576 E.02886
G1 X97.308 Y110.19 E.02731
G1 X97.308 Y109.81 E.02626
G1 X97.391 Y109.433 E.02668
G1 X97.613 Y108.966 E.03573
G1 X97.84 Y108.666 E.026
G1 X98.217 Y108.302 E.03621
G1 X98.708 Y107.989 E.04024
G1 X99.221 Y107.735 E.03956
G1 X99.765 Y107.558 E.03953
G1 X100.478 Y107.382 E.05075
G1 X100.697 Y107.249 E.01771
G1 X100.918 Y106.986 E.02374
G1 X101.031 Y106.628 E.02594
G1 X101.014 Y106.335 E.02028
G1 X100.862 Y105.995 E.02574
G1 X100.694 Y105.817 E.01691
G1 X100.221 Y105.433 E.0421
G1 X99.994 Y105.122 E.02661
G1 X99.969 Y104.956 E.0116
G1 X100.079 Y104.735 E.01706
G1 X100.477 Y104.359 E.03784
G1 X100.949 Y104.067 E.03835
G1 X101.492 Y103.819 E.04125
G1 X102.136 Y103.593 E.04716
G1 X102.866 Y103.398 E.05222
G1 X103.664 Y103.241 E.0562
G1 X104.515 Y103.125 E.05935
G1 X105.398 Y103.055 E.06121
G1 X106.46 Y103.035 E.0734
G1 X107.21 Y103.055 E.05185
G1 X108.096 Y103.125 E.06142
G1 X108.947 Y103.241 E.05935
G1 X109.746 Y103.398 E.05627
G1 X110.475 Y103.593 E.05215
G1 X111.119 Y103.819 E.04716
G1 X111.608 Y104.042 E.03714
G1 X112.011 Y104.276 E.0322
G1 X112.347 Y104.531 E.02915
G1 X112.565 Y104.773 E.02251
G1 X112.65 Y105 E.01675
G1 X112.587 Y105.183 E.01337
G1 X112.347 Y105.469 E.0258
G1 X111.874 Y105.825 E.04091
G1 X111.64 Y106.145 E.0274
G1 X111.563 Y106.475 E.02342
G1 X111.639 Y106.92 E.0312
G1 X111.817 Y107.236 E.02506
G1 X112.119 Y107.468 E.02632
G1 X112.499 Y107.558 E.02699
G1 X113.799 Y107.587 E.08986
G1 X114.442 Y107.648 E.04463
G1 X115.163 Y107.818 E.05119
G1 X115.686 Y108.023 E.03882
G1 X116.228 Y108.326 E.04291
G1 X116.451 Y108.378 E.01582
G1 E-2 F3600
G1 X116.451 Y108.378 F12000
G1 X117.594 Y107.21
G1 E2.2 F1800
G1 F900
G1 X117.539 Y107.006 E.0146
G1 X117.702 Y106.851 E.01554
G1 X118.278 Y106.567 E.04438
G1 X118.757 Y106.435 E.03434
G1 X119.267 Y106.358 E.03564
G1 X119.806 Y106.331 E.03729
G1 X120.312 Y106.356 E.03501
G1 X120.823 Y106.43 E.03568
G1 X121.277 Y106.548 E.03242
G1 X121.648 Y106.696 E.0276
G1 X121.912 Y106.853 E.02123
G1 X122.062 Y107.011 E.01506
G1 X121.694 Y107.28 E.0315
G1 X121.334 Y107.433 E.02703
G1 X120.854 Y107.565 E.0344
G1 X120.345 Y107.642 E.03557
G1 X119.806 Y107.669 E.03729
G1 X119.3 Y107.644 E.03501
G1 X118.789 Y107.57 E.03568
G1 X118.335 Y107.452 E.03242
G1 X117.863 Y107.262 E.03516
G1 X117.682 Y107.227 E.01274
G1 E-2 F3600
G1 X117.682 Y107.227 F12000
G1 X120.674 Y107.405
G1 E2.2 F1800
;TYPE:Solid infill
;WIDTH:0.719441
G1 F900
G1 X120.076 Y106.807 E.06219
G1 X119.823 Y106.795 E.01862
G1 X119.181 Y106.838 E.04731
G1 X119.825 Y107.483 E.06702
G1 E-2 F3600
G1 X119.825 Y107.483 F12000
G1 X119.836 Y107.699
G1 X117.103 Y107.451
G1 X116.635 Y107.896
G1 X115.341 Y107.814
G1 X115.127 Y107.773
G1 X114.527 Y107.627
G1 X114.405 Y107.607
G1 X114.369 Y107.822
G1 E2.2 F1800
;WIDTH:0.686094
G1 F900
G1 X116.72 Y110.173 E.23204
G1 X116.663 Y110.418 E.01755
G1 X116.589 Y110.581 E.01249
G1 X116.449 Y110.781 E.01704
G1 X113.429 Y107.761 E.29806
G1 E-2 F3600
G1 X113.429 Y107.761 F12000
G1 X113.434 Y107.544
G1 X111.83 Y107.514
G1 X111.451 Y106.097
G1 X112.127 Y105.688
G1 X112.168 Y105.655
G1 X112.026 Y105.479
G1 E2.2 F1800
G1 F900
G1 X110.713 Y104.166 E.12959
G1 X110.339 Y104.035 E.02766
G1 X109.485 Y103.817 E.06151
G1 X111.569 Y105.902 E.20573
G1 E-2 F3600
G1 X111.569 Y105.902 F12000
G1 X108.1 Y103.312
G1 E2.2 F1800
G1 F900
G1 X111.118 Y106.33 E.29787
G1 X111.108 Y106.66 E.02304
G1 X111.147 Y106.871 E.01497
G1 X111.244 Y107.182 E.02274
G1 X111.338 Y107.362 E.01417
G1 X111.468 Y107.54 E.01538
G1 X111.715 Y107.765 E.02332
G1 X111.921 Y107.886 E.01667
G1 X112.184 Y107.98 E.01949
G1 X112.481 Y108.019 E.02091
G1 X112.814 Y108.026 E.02324
G1 X116.04 Y111.252 E.3184
G1 X115.475 Y111.565 E.04508
G1 X107.446 Y103.537 E.79239
G1 X106.53 Y103.5 E.06398
G1 X114.829 Y111.799 E.81908
G1 X114.257 Y111.917 E.04076
G1 X114.08 Y111.929 E.01238
G1 X105.663 Y103.513 E.83068
G1 X105.42 Y103.516 E.01696
G1 X104.834 Y103.563 E.04103
G1 X113.237 Y111.966 E.82935
G1 X112.385 Y111.993 E.05949
G1 X104.047 Y103.655 E.82293
G1 X103.297 Y103.784 E.05311
G1 X111.736 Y112.223 E.8329
G1 X111.567 Y112.357 E.01505
G1 X111.317 Y112.683 E.02867
G1 X102.585 Y103.951 E.86182
G1 X102.272 Y104.035 E.02262
G1 X101.915 Y104.16 E.0264
G1 X111.107 Y113.353 E.90727
G1 X111.102 Y113.547 E.01354
G1 X111.132 Y113.779 E.01633
G1 X111.239 Y114.089 E.02289
G1 X111.365 Y114.299 E.01709
G1 X111.565 Y114.519 E.02075
G1 X112.077 Y114.912 E.04504
G1 X112.142 Y115 E.00764
G1 X112.017 Y115.142 E.0132
G1 X101.293 Y104.418 E1.05842
G1 X101.164 Y104.476 E.00987
G1 X100.738 Y104.742 E.03505
G1 X111.493 Y115.497 E1.06148
G1 X110.889 Y115.772 E.04632
G1 X101.483 Y106.366 E.92834
G1 X101.491 Y106.679 E.02185
G1 X101.424 Y106.984 E.02179
G1 X101.358 Y107.121 E.01061
G1 X110.226 Y115.989 E.87524
G1 X109.532 Y116.173 E.05011
G1 X100.975 Y107.617 E.8445
G1 X100.664 Y107.806 E.0254
G1 X100.374 Y107.895 E.02117
G1 X108.793 Y116.314 E.83093
G1 X108.018 Y116.418 E.05457
G1 X99.665 Y108.065 E.82441
G1 X99.491 Y108.121 E.01276
G1 X99.044 Y108.323 E.03423
G1 X107.203 Y116.483 E.80532
G1 X106.347 Y116.506 E.05976
G1 X98.506 Y108.665 E.77388
G1 X98.187 Y108.973 E.03095
G1 X98.078 Y109.116 E.01255
G1 X105.442 Y116.48 E.7268
G1 X104.488 Y116.405 E.06678
G1 X101.497 Y113.414 E.2952
G1 X101.495 Y113.324 E.00628
G1 X101.428 Y113.016 E.022
G1 X101.291 Y112.727 E.02232
G1 X101.179 Y112.575 E.01318
G1 X100.989 Y112.386 E.0187
G1 X100.667 Y112.191 E.02627
G1 X100.124 Y112.042 E.0393
G1 X97.801 Y109.718 E.22932
G1 X97.77 Y109.86 E.01014
G1 X97.77 Y110.14 E.01954
G1 X97.834 Y110.43 E.02073
G1 X97.965 Y110.723 E.0224
G1 X98.073 Y110.869 E.01267
G1 X99.299 Y112.095 E.121
G1 E-2 F3600
G1 X99.299 Y112.095 F12000
G1 X99.215 Y112.3
G1 X100.771 Y112.656
G1 X101.091 Y113.82
G1 X101.062 Y113.844
G1 X101.123 Y113.92
G1 E2.2 F1800
G1 F900
G1 X103.45 Y116.246 E.22962
G1 X102.97 Y116.152 E.03414
G1 X102.296 Y115.972 E.04869
G1 X100.916 Y114.592 E.1362
G1 X100.549 Y114.895 E.03321
G1 X100.47 Y115 E.00917
G1 X100.545 Y115.1 E.00872
G1 X101.365 Y115.92 E.08093
G1 E-2 F3600
G1 X101.365 Y115.92 F12000
G1 X101.275 Y116.117
G1 X111.83 Y112.486
G1 X115.341 Y112.186
G1 X116.635 Y112.104
G1 X120.67 Y113.625
G1 X120.707 Y113.62
G1 X120.674 Y113.405
G1 E2.2 F1800
;WIDTH:0.71944
G1 F900
G1 X120.076 Y112.807 E.06219
G1 X119.823 Y112.795 E.01862
G1 X119.181 Y112.838 E.04731
G1 X119.825 Y113.483 E.06702
M106 S193.8
;LAYER_CHANGE
;Z:0.5
;HEIGHT:0.2
;BEFORE_LAYER_CHANGE
G92 E0
;0.5


;WIPE_START
G1 F9600
G1 X119.181 Y112.838 E-.32471
G1 X119.823 Y112.795 E-.22922
G1 X120.076 Y112.807 E-.09023
G1 X120.674 Y113.405 E-.30128
;WIPE_END
G1 E-1.05456 F3600
G1 Z.5 F12000
;AFTER_LAYER_CHANGE
;0.5
